X:1
T:Festum Dei, 76.76 D
T:William Wallace Gilchrist, 1895
T:Festum Dei, 76.76 D
T:Public Domain
C:William Wallace Gilchrist, 1895
Z:Public Domain
%%score ( 1 2 ) ( 3 4 )
L:1/8
M:4/4
K:Bb
V:1 treble 
V:2 treble 
V:3 bass 
V:4 bass 
V:1
 D2 | [CF]2 [EB]2 [CA]2 [B,F]2 | (F2 E2) [DF]2 F2 | [EG]2 [Ee]2 E2 z B x | [DB]6 D2 | %5
 [CF]2 [EB]2 [CA]2 [B,F]2 | (F2 E2) [DF]2 F2 | [EG]2 [Ee]2 E2 z B x | [DB]6 [Fd]2 | %9
 [Fc]2 [Fd]2 [Ge]2 [GB]2 | [Fd]4 [Fd]2 [^FB]2 | G2 [^FA]2 [GB]2 (=F=E) | [Fc]6 D2 | %13
 [CF]2 [EB]2 [CA]2 [B,F]2 | ([FG]2 [Ee]2) [Fd]2 [FB]2 | G2 [FB]2 E2 z B | [DB]6 |] %17
V:2
 D2 | x8 | G4 F2 x2 | x4 c3 E2 | x6 D2 | x8 | G4 F2 x2 | x4 c3 E2 | x8 | x8 | x8 | G2 x2 c2 x2 | %12
 x6 D2 | x8 | x8 | G2 c3 F2 x | x6 |] %17
V:3
 [B,,B,]2 | [B,,A,]2 [B,,G,]2 [B,,F,]2 [B,,D,]2 | (E,2 G,2) B,2 [A,C]2 | %3
 [G,B,]2 [_G,B,]2 [F,B,]2 [F,A,]2 x | [B,,B,]6 [B,,B,]2 | [B,,A,]2 [B,,G,]2 [B,,F,]2 [B,,D,]2 | %6
 (E,2 G,2) B,2 [A,C]2 | [G,B,]2 [_G,B,]2 [F,B,]2 [F,A,]2 x | [B,,B,]6 [B,,B,]2 | %9
 [F,A,]2 [F,A,]2 [E,B,]2 [E,B,]2 | [B,,B,]4 [B,,B,]2 [D,B,]2 | [E,B,]2 [D,D]2 [G,D]2 [C,B,]2 | %12
 [F,A,]6 [B,,B,]2 | [B,,A,]2 [B,,G,]2 [B,,F,]2 [D,F,]2 | (E,2 G,2) B,2 [D,B,]2 | %15
 [E,B,]2 [D,B,]2 [C,G,]2 [F,A,]2 | [B,,F,B,]6 |] %17
V:4
 x2 | x8 | B,,4 B,2 x2 | x9 | x8 | x8 | B,,4 B,2 x2 | x9 | x8 | x8 | x8 | x8 | x8 | x8 | %14
 B,4 B,2 x2 | x8 | x6 |] %17

